meat/img/credit.svg

<svg width="45" height="45" viewBox="0 0 45 45" fill="none" xmlns="http://www.w3.org/2000/svg">
<path d="M40 0.5H5C2.51472 0.5 0.5 2.51472 0.5 5V40C0.5 42.4853 2.51472 44.5 5 44.5H40C42.4853 44.5 44.5 42.4853 44.5 40V5C44.5 2.51472 42.4853 0.5 40 0.5Z" stroke="white"/>
<path d="M40 0.5H5C2.51472 0.5 0.5 2.51472 0.5 5V40C0.5 42.4853 2.51472 44.5 5 44.5H40C42.4853 44.5 44.5 42.4853 44.5 40V5C44.5 2.51472 42.4853 0.5 40 0.5Z" stroke="url(#paint0_linear)" stroke-opacity="0.1"/>
<path d="M11.0947 16.8998H9.63379L7.43408 13.8244V16.8998H6.14746V10.832H7.43408V13.7704L9.60889 10.832H10.9785L8.76636 13.7455L11.0947 16.8998ZM13.145 13.6874H13.5684C13.964 13.6874 14.2601 13.6099 14.4565 13.455C14.653 13.2973 14.7512 13.069 14.7512 12.7702C14.7512 12.4686 14.6682 12.2459 14.5022 12.102C14.3389 11.9581 14.0816 11.8862 13.7302 11.8862H13.145V13.6874ZM16.0503 12.7245C16.0503 13.3775 15.8455 13.877 15.436 14.2228C15.0293 14.5687 14.4496 14.7416 13.697 14.7416H13.145V16.8998H11.8584V10.832H13.7966C14.5326 10.832 15.0916 10.9911 15.4734 11.3092C15.858 11.6247 16.0503 12.0964 16.0503 12.7245ZM20.6904 16.8998H17.1958V10.832H20.6904V11.8862H18.4824V13.2184H20.5369V14.2726H18.4824V15.8373H20.6904V16.8998ZM21.2383 15.829H21.7073C22.1085 15.0266 22.4253 14.2256 22.6577 13.4259C22.8901 12.6235 23.0631 11.7589 23.1765 10.832H26.7126V15.829H27.522V18.6679H26.281V16.8998H22.4792V18.6679H21.2383V15.829ZM24.1975 11.9028C24.109 12.5364 23.9609 13.2074 23.7534 13.9157C23.5487 14.624 23.3176 15.2618 23.0603 15.829H25.4302V11.9028H24.1975ZM28.46 10.832H29.6179V13.7621L29.6013 14.5466L29.5598 15.4389H29.5847L32.3862 10.832H33.926V16.8998H32.7805V13.9863C32.7805 13.5961 32.8054 13.0178 32.8552 12.2514H32.822L30.0081 16.8998H28.46V10.832ZM37.7983 16.8998H36.5117V11.9028H34.864V10.832H39.446V11.9028H37.7983V16.8998Z" fill="white"/>
<path d="M21.6507 34.9464V37.75H11.6599V35.5357L16.4629 31.1607C16.9273 30.7321 17.2389 30.369 17.3978 30.0714C17.5566 29.7619 17.6361 29.4524 17.6361 29.1429C17.6361 28.7381 17.4955 28.4226 17.2145 28.1964C16.9334 27.9702 16.524 27.8571 15.9862 27.8571C15.5096 27.8571 15.0696 27.9643 14.6663 28.1786C14.2753 28.381 13.9514 28.6786 13.6948 29.0714L11 27.6071C11.5011 26.7976 12.2038 26.1607 13.1081 25.6964C14.0125 25.2321 15.0819 25 16.3162 25C17.2939 25 18.1555 25.1548 18.901 25.4643C19.6587 25.7738 20.2453 26.2202 20.6608 26.8036C21.0886 27.375 21.3024 28.0417 21.3024 28.8036C21.3024 29.4821 21.1497 30.125 20.8441 30.7321C20.5508 31.3274 19.9764 32.006 19.1209 32.7679L16.7012 34.9464H21.6507Z" fill="#F997A9"/>
<path d="M28.3538 38C27.2539 38 26.2762 37.744 25.4208 37.2321C24.5653 36.7202 23.8931 35.9762 23.4043 35C22.9276 34.0119 22.6893 32.8452 22.6893 31.5C22.6893 30.1548 22.9276 28.994 23.4043 28.0179C23.8931 27.0298 24.5653 26.2798 25.4208 25.7679C26.2762 25.256 27.2539 25 28.3538 25C29.4415 25 30.4131 25.256 31.2686 25.7679C32.1241 26.2798 32.7901 27.0298 33.2667 28.0179C33.7556 28.994 34 30.1548 34 31.5C34 32.8452 33.7556 34.0119 33.2667 35C32.7901 35.9762 32.1241 36.7202 31.2686 37.2321C30.4131 37.744 29.4415 38 28.3538 38ZM28.3538 35.1071C28.9649 35.1071 29.4476 34.8214 29.802 34.25C30.1687 33.6667 30.352 32.75 30.352 31.5C30.352 30.25 30.1687 29.3393 29.802 28.7679C29.4476 28.1845 28.9649 27.8929 28.3538 27.8929C27.7306 27.8929 27.2356 28.1845 26.869 28.7679C26.5145 29.3393 26.3373 30.25 26.3373 31.5C26.3373 32.75 26.5145 33.6667 26.869 34.25C27.2356 34.8214 27.7306 35.1071 28.3538 35.1071Z" fill="#F997A9"/>
<line x1="4" y1="22.5" x2="40" y2="22.5" stroke="#ED3F5E"/>
<defs>
<linearGradient id="paint0_linear" x1="22.5" y1="44.5" x2="22.5" y2="0.500001" gradientUnits="userSpaceOnUse">
<stop stop-color="#015423"/>
<stop offset="1" stop-color="#6ED26C"/>
</linearGradient>
</defs>
</svg>

<svg width="45" height="45" fill="none" xmlns="http://www.w3.org/2000/svg"><path d="M40 .5H5A4.5 4.5 0 0 0 .5 5v35A4.5 4.5 0 0 0 5 44.5h35a4.5 4.5 0 0 0 4.5-4.5V5A4.5 4.5 0 0 0 40 .5z" stroke="#fff"/><path d="M40 .5H5A4.5 4.5 0 0 0 .5 5v35A4.5 4.5 0 0 0 5 44.5h35a4.5 4.5 0 0 0 4.5-4.5V5A4.5 4.5 0 0 0 40 .5z" stroke="url(#paint0_linear)" stroke-opacity=".1"/><path d="M11.095 16.9H9.634l-2.2-3.076V16.9H6.147v-6.068h1.287v2.938l2.175-2.938h1.37l-2.213 2.913 2.329 3.155zm2.05-3.213h.423c.396 0 .692-.077.889-.232.196-.158.294-.386.294-.685 0-.301-.083-.524-.249-.668-.163-.144-.42-.216-.772-.216h-.585v1.801zm2.905-.962c0 .652-.205 1.152-.614 1.498-.407.346-.986.519-1.739.519h-.552V16.9h-1.287v-6.068h1.939c.736 0 1.295.16 1.676.477.385.316.577.787.577 1.416zm4.64 4.175h-3.494v-6.068h3.494v1.054h-2.208v1.332h2.055v1.055h-2.055v1.564h2.208V16.9zm.548-1.071h.47c.4-.802.717-1.603.95-2.403.232-.803.405-1.667.518-2.594h3.537v4.997h.809v2.839h-1.241V16.9h-3.802v1.768h-1.24v-2.839zm2.96-3.926a14.148 14.148 0 0 1-.445 2.013 14.149 14.149 0 0 1-.693 1.913h2.37v-3.926h-1.232zm4.262-1.071h1.158v2.93l-.017.785-.041.892h.025l2.801-4.607h1.54V16.9h-1.145v-2.914c0-.39.024-.968.074-1.735h-.033L30.008 16.9H28.46v-6.068zm9.338 6.068h-1.286v-4.997h-1.648v-1.071h4.582v1.07h-1.648V16.9z" fill="#fff"/><path d="M21.65 34.946v2.804h-9.99v-2.214l4.803-4.375c.464-.429.776-.792.935-1.09.159-.31.238-.619.238-.928 0-.405-.14-.72-.421-.947-.282-.226-.691-.339-1.229-.339a2.77 2.77 0 0 0-1.32.322c-.39.202-.715.5-.971.892L11 27.607c.501-.81 1.204-1.446 2.108-1.91.904-.465 1.974-.697 3.208-.697.978 0 1.84.155 2.585.464.758.31 1.344.756 1.76 1.34.428.571.641 1.238.641 2 0 .678-.152 1.321-.458 1.928-.293.595-.868 1.274-1.723 2.036l-2.42 2.178h4.95zM28.354 38c-1.1 0-2.078-.256-2.933-.768-.856-.512-1.528-1.256-2.017-2.232-.476-.988-.715-2.155-.715-3.5 0-1.345.239-2.506.715-3.482.49-.988 1.161-1.738 2.017-2.25.855-.512 1.833-.768 2.933-.768 1.088 0 2.06.256 2.915.768s1.521 1.262 1.998 2.25c.489.976.733 2.137.733 3.482 0 1.345-.244 2.512-.733 3.5-.477.976-1.143 1.72-1.998 2.232-.856.512-1.827.768-2.915.768zm0-2.893c.61 0 1.094-.286 1.448-.857.367-.583.55-1.5.55-2.75s-.183-2.16-.55-2.732c-.354-.584-.837-.875-1.448-.875-.623 0-1.118.291-1.485.875-.354.571-.532 1.482-.532 2.732 0 1.25.178 2.167.532 2.75.367.571.862.857 1.485.857z" fill="#F997A9"/><path stroke="#ED3F5E" d="M4 22.5h36"/><defs><linearGradient id="paint0_linear" x1="22.5" y1="44.5" x2="22.5" y2=".5" gradientUnits="userSpaceOnUse"><stop stop-color="#015423"/><stop offset="1" stop-color="#6ED26C"/></linearGradient></defs></svg>
